static/images/favicons/mask-icon.svg

<svg xmlns="http://www.w3.org/2000/svg" width="16" height="16" viewBox="0 0 16 16"><path fill="#000000" d="M10.247 2.031H7.456L8.396.5 1.511 2.014l-.021-.007-.008-.002.008.008v.006l-.008.002.008.002.016 8.843v.002l.001-.002 2.947 1.221 2.203.918 6.087 2.495-.478-1.751 2.251-1.61V2.031z"/></svg>

<?xml version="1.0" encoding="UTF-8"?>
<!DOCTYPE svg PUBLIC "-//W3C//DTD SVG 1.1//EN" "http://www.w3.org/Graphics/SVG/1.1/DTD/svg11.dtd">
<svg version="1.1" xmlns="http://www.w3.org/2000/svg" xmlns:xlink="http://www.w3.org/1999/xlink" x="0" y="0" width="16" height="16" viewBox="0, 0, 16, 16">
  <g id="Layer_1">
    <path d="M10.247,2.031 L7.456,2.031 L8.396,0.5 L1.511,2.014 L1.49,2.007 L1.49,2.007 L1.49,2.007 L1.482,2.005 L1.49,2.013 L1.49,2.019 L1.482,2.021 L1.49,2.023 L1.506,10.866 L1.506,10.868 L1.507,10.866 L4.454,12.087 L6.657,13.005 L12.744,15.5 L12.266,13.749 L14.517,12.139 L14.517,7.153 L14.517,3.836 L14.517,2.031 z" fill="#000000"/>
  </g>
</svg>
